X: 14759
T: Gan Ainm
R: waltz
M: 3/4
K: Gmajor
g2|:bg dB ce|ed BG Bd|dc AD FA|1 c2 B2 g2:|2 c2 B2 G2||
c2 AF Ac|d2 BG Bd|g3e ce|d4 g2|
bg dB ce|ed BG Bd|dc AD FA|G4 GA|
B2 BG Bc|d4 de|ec cA Ac|B4 GA|
B2 BG Bc|d4 de|ec cA AG|G6||

